X:1
T:Prélude from Suite No.1 BWV 1007
T:Prélude arranged in G major for Flute 
T:J.S.Bach
T:from Suite No.1 for Unaccompanied Cello BWV 1007
T:Public Domain
T:Public Domain
C:J.S.Bach
Z:Public Domain
%%score ( 1 2 )
L:1/8
Q:1/4=72
M:4/4
K:G
V:1 treble nm="Flute"
V:2 treble 
V:1
!mf! (G/d/b/)a/ b/d/b/d/ (G/d/b/)a/ b/d/b/d/ | (G/e/c'/)b/ c'/e/c'/e/ (G/e/c'/)b/ c'/e/c'/e/ | %2
 (G/f/c'/)b/ c'/f/c'/f/ (G/f/c'/)b/ c'/f/c'/f/ | (G/g/b/)a/ b/g/b/g/ (G/g/b/)a/ b/g/b/f/ | %4
 (G/e/b/)a/ b/g/f/g/ (e/g/f/)g/ B/d/^c/B/ | (^c/g/a/)g/ a/g/a/g/ (c/g/a/)g/ a/g/a/g/ | %6
 (f/a/d'/)^c'/ d'/a/g/a/ f/a/g/a/ d/f/e/d/ | (E/B/g/)f/ g/B/g/B/ (E/B/g/)f/ g/B/g/B/ | %8
 E/^c/d/e/ d/c/B/A/ (g/f/e/)d'/ ^c'/b/a/g/ | (f/e/d/)d'/ a/d'/f/a/ (d/e/f/)a/ g/f/e/d/ | %10
 ^g/(d/=f/e/) f/d/g/d/ b/(d/f/e/) f/d/g/d/ | (c/e/a/)b/ c'/a/e/d/ (c/e/a/)b/ c'/a/^f/e/ | %12
 (^d/f/d/)f/ a/f/a/f/ (d/f/d/)f/ a/f/a/f/ | (g/f/e/)g/ f/g/a/f/ g/f/e/=d/ c/B/A/G/ | %14
 (F/c/d/)c/ d/c/d/c/ (F/c/d/)c/ d/c/d/c/ | (G/B/=f/)e/ f/B/f/B/ (G/B/=f/)e/ f/B/f/B/ | %16
 (G/c/e/)d/ e/c/e/c/ (G/c/e/)d/ e/c/e/c/ | (G/^f/c'/)b/ c'/f/c'/f/ (G/f/c'/)b/ c'/f/c'/f/ | %18
 (G/d/b/)a/ b/g/f/e/ d/c/B/A/ G/F/E/D/ | (^C/A/e/)f/ g/e/f/g/ (C/A/e/)f/ g/e/f/g/ | %20
 (=C/A/d/)e/ f/d/e/f/ (C/A/d/)e/ f/d/e/f/ | (C/A/d/)f/ (a/^c'/!fermata!d'-) d'/A/B/=c/ d/e/f/g/ | %22
 a/f/d/e/ f/g/a/b/ c'/a/f/g/ a/b/c'/d'/ | (_e'/d'/^c'/d'/) (d'/=c'/b/c'/) c'/a/f/=e/ d/A/B/c/ | %24
 (D/A/d/)f/ a/b/c'/a/ b/g/d/c/ B/G/A/B/ | (D/G/B/)d/ g/a/b/g/ (^c'/_b/a/b/) (b/a/^g/a/) | %26
 (a/=g/f/)g/ g/e/^c/=B/ (A/c/e/)g/ a/^c'/d'/c'/ | (d'/a/f/)e/ f/a/d/f/ A/d/^c/B/ A/G/F/E/ | %28
 D(=c'/b/ a/g/f/e/) d/(c'/b/a/ g/f/e/d/) | c/(b/a/g/ f/e/d/c/) B/(a/g/f/ e/d/c/B/) | %30
 A/(g/f/e/) f/a/d/a/ e/a/f/a/ g/a/e/a/ | f/a/d/a/ g/a/e/a/ f/a/d/a/ g/a/e/a/ | %32
 f/a/d/a/ e/a/f/a/ g/x/a/ x/ b/x/d/ x/ | a/x/b/ x/ c'/x/d/ x/ B/x/c/ x/ d/x/B/ x/ | %34
 c'/x/b/ x/ c'/x/a/ x/ b/x/a/ x/ b/x/g/ x/ | a/x/g/ x/ a/x/f/ x/ g/a/f/a/ g/a/e/a/ | %36
 f/a/d/e/ =f/d/^f/d/ g/d/^g/d/ a/d/_b/d/ | =b/d/c'/d/ ^c'/d/d'/d/ _e'/d/=e'/d/ =f'/d/^f'/d/ | %38
 (g'/b/d/)b/ g'/b/g'/b/ (g'/b/d/)b/ g'/b/g'/b/ | (g'/a/d/)a/ g'/a/g'/a/ (g'/a/d/)a/ g'/a/g'/a/ | %40
 (f'/c'/d/)c'/ f'/c'/f'/c'/ (f'/c'/d/)c'/ f'/c'/f'/c'/ |{!fermata!G!fermata!b} !fermata!g'8 |] %42
V:2
 x8 | x8 | x8 | x8 | x8 | x8 | x8 | x8 | x8 | x8 | x8 | x8 | x8 | x8 | x8 | x8 | x8 | x8 | x8 | %19
 x8 | x8 | x8 | x8 | x8 | x8 | x8 | x8 | x8 | x8 | x8 | x8 | x8 | x9/2 a/ x/ a/ x/ a/ x/ a/ | %33
 x/ a/ x/ a/ x/ a/ x/ a/ x/ a/ x/ a/ x/ a/ x/ a/ | %34
 x/ a/ x/ a/ x/ a/ x/ a/ x/ a/ x/ a/ x/ a/ x/ a/ | x/ a/ x/ a/ x/ a/ x/ a/ x4 | x8 | x8 | x8 | x8 | %40
 x8 | x8 |] %42

